X: 3373
T: Benbulben's Shadow
R: reel
M: 4/4
K: Bminor
|:Bbag f2fd|ed (3Bcd e2dc|Bbag f2af|deed egfe|
fbag f2fd|edBA BAF2|GABd cedc|B2BA Bcde:|
|:Bdfd Bdfd|Bdfd edBA|Bdfd Bdfd|e2dc B3A|
Bdfd bdfd|Adfd Gdfa|b2ag f2fd|eedc B4:|

